X:252
T:New May Day TS.252
M:C|
L:1/8
Q:1/2=90
S:Thomas Sands’ MS,1810,Lincolnshire
R:reel
O:England;Lincolnshire
Z:vmp.Ruairidh Greig, 2011
K:D
(A/G/)|FAdF GBed|cABc dfdA|FAdF GBed|cABcd2d2:|
|:e|fdcd BdAd|GdFd eEEe|fdcd BdAd|cABc d2de|
fdcd BdAd|GdFd eEEG|FAdF GBed|cABc d2d2|]

